X: 43654
T: Zoidberg's
R: jig
M: 6/8
K: Dmajor
|:f2f f2a|fed B2A|A2A ABd|e2e ~e2e|
f2f f2a|fed B2A|B2d A2d|Adc d3:|
|:a2a afd|b2b bgd|a2a afd|efe B2A|
[1 a2a afd|b2b bgd|a2a afd|efe ede:|
[2 B2d A2d|B2d A2d|B2d A2d|Adc d3||

